X:1
T:Lark in the Morning, The
Z:Vancouver, Boston
M:6/8
R:jig
K:G
dB|:AFA AFA|BGB BdB|AFA AFA|fed BdB|AFA AFA|BGB BAB|def afe|fed BdB:|
def a2a|baf afe|def g2e|fed BAB|def ~a3|baf a2f|~g3  faf|edB BAB:|
.d2 f fef|fef fef|.d2 f fef|edB BAB|.d2 f fef|feffed|~g3 faf|edB BAF:|
Add fdd|ede fdB|Add fdd|edB BAF|Add fdd|ede fed|~g3 faf|edB BAF:|
<end>
<start>
